X:1
T:St. Agatha, 77.74
T:St. Agatha, 77.74
T:Thomas Bishop Southgate (1814-1868)
T:Public Domain Courtesy of the Cyber Hymnal™
C:Thomas Bishop Southgate (1814-1868)
Z:Public Domain
Z:Courtesy of the Cyber Hymnal™
%%score ( 1 2 ) ( 3 4 )
L:1/8
Q:1/4=115
M:4/4
K:F
V:1 treble 
V:2 treble 
V:3 bass 
V:4 bass 
V:1
 [CF]2 [EG]2 [FA]2 [FB]2 | [FA]2 [EG]2 [FA]4 | [FB]2 [FB]2 [FA]2 [Ec]2 | [Gc]2 =B2 [Ec]4 | %4
 F2 [EG]2 [FA]2 [Fd]2 | [Fc]2 B2 [EA]4 | [DG]2 [DF]2 [CE]4 | [CF]8 |] %8
V:2
 x8 | x8 | x8 | x2 (GF) x4 | (CD) x6 | x2 (FE) x4 | x8 | x8 |] %8
V:3
 [F,A,]2 [C,C]2 [F,C]2 [B,,D]2 | [C,C]2 [C,C]2 [F,C]4 | [B,,D]2 [D,B,]2 [F,C]2 [A,C]2 | %3
 [G,D]2 [G,D]2 [C,C]4 | A,2 [G,B,]2 [F,C]2 B,2 | [A,C]2 [G,D]2 [A,^C]4 | [B,,D]2 [G,,B,]2 [C,B,]4 | %7
 [F,,A,]8 |] %8
V:4
 x8 | x8 | x8 | x8 | A,2 x2 B,2 x2 | x8 | x8 | x8 |] %8

